styles/1/Numix/48/actions/custom-document-open-recent.svg

<?xml version="1.0" encoding="UTF-8" standalone="no"?>
<!-- Created with Inkscape (http://www.inkscape.org/) -->

<svg
   xmlns:dc="http://purl.org/dc/elements/1.1/"
   xmlns:cc="http://creativecommons.org/ns#"
   xmlns:rdf="http://www.w3.org/1999/02/22-rdf-syntax-ns#"
   xmlns:svg="http://www.w3.org/2000/svg"
   xmlns="http://www.w3.org/2000/svg"
   xmlns:sodipodi="http://sodipodi.sourceforge.net/DTD/sodipodi-0.dtd"
   xmlns:inkscape="http://www.inkscape.org/namespaces/inkscape"
   id="svg3396"
   height="48"
   width="48"
   version="1.0"
   inkscape:version="0.91 r"
   sodipodi:docname="custom-document-open-recent.svg">
  <metadata
     id="metadata64">
    <rdf:RDF>
      <cc:Work
         rdf:about="">
        <dc:format>image/svg+xml</dc:format>
        <dc:type
           rdf:resource="http://purl.org/dc/dcmitype/StillImage" />
        <dc:title />
      </cc:Work>
    </rdf:RDF>
  </metadata>
  <sodipodi:namedview
     pagecolor="#ffffff"
     bordercolor="#666666"
     borderopacity="1"
     objecttolerance="10"
     gridtolerance="10"
     guidetolerance="10"
     inkscape:pageopacity="0"
     inkscape:pageshadow="2"
     inkscape:window-width="1366"
     inkscape:window-height="747"
     id="namedview62"
     showgrid="true"
     inkscape:zoom="5.9374525"
     inkscape:cx="-24.538577"
     inkscape:cy="14.764171"
     inkscape:window-x="0"
     inkscape:window-y="21"
     inkscape:window-maximized="1"
     inkscape:current-layer="svg3396">
    <inkscape:grid
       type="xygrid"
       id="grid3906" />
  </sodipodi:namedview>
  <defs
     id="defs3398" />
  <path
     inkscape:connector-curvature="0"
     style="font-size:medium;font-style:normal;font-variant:normal;font-weight:normal;font-stretch:normal;text-indent:0;text-align:start;text-decoration:none;line-height:normal;letter-spacing:normal;word-spacing:normal;text-transform:none;direction:ltr;block-progression:tb;writing-mode:lr-tb;text-anchor:start;baseline-shift:baseline;color:#000000;fill:replacecolour1;fill-opacity:1;stroke:none;stroke-width:3.00000024;marker:none;visibility:visible;display:inline;overflow:visible;enable-background:accumulate;font-family:Sans;-inkscape-font-specification:Sans;opacity:0.4"
     d="M 5.1875,8.0000004 C 4.5111319,8.143957 3.9849192,8.8086467 4,9.5000004 L 4,37.5 c 7.86e-5,0.785377 0.7146233,1.499921 1.5,1.5 l 37,0 c 0.785377,-7.9e-5 1.499921,-0.714623 1.5,-1.5 l 0,-24.96875 c -7.9e-5,-0.785377 -0.714623,-1.499921 -1.5,-1.5 l -14.5,0 0,-1.5312496 c -7.9e-5,-0.7853767 -0.714623,-1.4999214 -1.5,-1.5 l -21,0 c -0.1037883,-0.010869 -0.2087117,-0.010869 -0.3125,0 z"
     id="path3912-0"
     sodipodi:nodetypes="ccccccccccccc" />
  <path
     style="fill:#eae7d1;fill-opacity:1"
     d="M 8,6 40,6 40,25 8,25 z"
     id="path6"
     inkscape:connector-curvature="0" />
  <path
     style="fill:#7a7a68;fill-opacity:1"
     inkscape:connector-curvature="0"
     id="path20-3-9"
     d="m 12,21 24,0 0,1 -24,0 z" />
  <path
     style="font-size:medium;font-style:normal;font-variant:normal;font-weight:normal;font-stretch:normal;text-indent:0;text-align:start;text-decoration:none;line-height:normal;letter-spacing:normal;word-spacing:normal;text-transform:none;direction:ltr;block-progression:tb;writing-mode:lr-tb;text-anchor:start;baseline-shift:baseline;color:#000000;fill:replacecolour1;fill-opacity:1;stroke:none;stroke-width:3.00000023999999987;marker:none;visibility:visible;display:inline;overflow:visible;enable-background:accumulate;font-family:Sans;-inkscape-font-specification:Sans"
     d="M 6 20 C 4 20 4 22 4 22 L 4 23.59375 L 4 37.5 A 1.5001501 1.5001501 0 0 0 5.5 39 L 42.5 39 A 1.5001501 1.5001501 0 0 0 44 37.5 L 44 27 L 44 25 C 44 23 42 23 42 23 L 41 23 L 39 23 L 36 23 L 28 23 L 28 22 C 28 20 26 20 26 20 L 8 20 L 7 20 L 6 20 z "
     id="path3912" />
  <path
     style="fill:#7a7a68;fill-opacity:1"
     inkscape:connector-curvature="0"
     id="path20"
     d="m 12,12 24,0 0,1 -24,0 z" />
  <path
     style="fill:#7a7a68;fill-opacity:1"
     inkscape:connector-curvature="0"
     id="path20-1"
     d="m 12,9 24,0 0,1 -24,0 z" />
  <path
     style="fill:#7a7a68;fill-opacity:1"
     inkscape:connector-curvature="0"
     id="path20-3"
     d="m 12,15 24,0 0,1 -24,0 z" />
  <path
     style="fill:#7a7a68;fill-opacity:1"
     inkscape:connector-curvature="0"
     id="path20-3-3"
     d="m 12,18 24,0 0,1 -24,0 z" />
  <path
     inkscape:connector-curvature="0"
     style="fill:#859900;fill-rule:evenodd"
     d="m 43.523438,34.339508 c 0.07031,3.496094 -1.773438,6.757812 -4.824219,8.527344 -3.046875,1.769531 -6.824219,1.769531 -9.875,0 -3.050781,-1.769532 -4.894531,-5.03125 -4.820313,-8.527344 -0.07422,-3.5 1.769532,-6.761719 4.820313,-8.53125 3.050781,-1.769532 6.828125,-1.769532 9.875,0 3.050781,1.769531 4.894531,5.03125 4.824219,8.53125 z"
     id="path8" />
  <path
     inkscape:connector-curvature="0"
     style="fill:#ffffff"
     d="m 39.101562,28.140289 c -0.207031,0.07422 -0.382812,0.214844 -0.5,0.398437 l -5.320312,5.199219 -3.320312,-3.199219 c -0.132813,-0.441406 -0.550782,-0.738281 -1.015626,-0.714843 -0.460937,0.02734 -0.84375,0.367187 -0.929687,0.820312 -0.08203,0.457031 0.160156,0.910157 0.585937,1.09375 l 4,4 c 0.382813,0.359375 0.976563,0.359375 1.359376,0 l 6,-6 c 0.234374,-0.308593 0.265624,-0.730469 0.08203,-1.074219 -0.183594,-0.34375 -0.554688,-0.546874 -0.941407,-0.523437 z"
     id="path10" />
</svg>

<!-- Created with Inkscape (http://www.inkscape.org/) -->
<svg xmlns="http://www.w3.org/2000/svg" viewBox="0 0 48 48">
 <path d="m 5.188 8 c -0.676 0.144 -1.203 0.809 -1.188 1.5 l 0 28 c 0 0.785 0.715 1.5 1.5 1.5 l 37 0 c 0.785 0 1.5 -0.715 1.5 -1.5 l 0 -24.969 c 0 -0.785 -0.715 -1.5 -1.5 -1.5 l -14.5 0 0 -1.531 c 0 -0.785 -0.715 -1.5 -1.5 -1.5 l -21 0 c -0.104 -0.011 -0.209 -0.011 -0.313 0 z" style="visibility:visible;fill:replacecolour1;opacity:0.4;fill-opacity:1;stroke:none;display:inline;color:#000"/>
 <path d="m 8 6 32 0 0 19 -32 0 z" style="fill:#eae7d1;fill-opacity:1"/>
 <path d="m 12 21 24 0 0 1 -24 0 z" style="fill:#7a7a68;fill-opacity:1"/>
 <path d="m 6 20 c -2 0 -2 2 -2 2 l 0 1.594 l 0 13.906 a 1.5 1.5 0 0 0 1.5 1.5 l 37 0 a 1.5 1.5 0 0 0 1.5 -1.5 l 0 -10.5 l 0 -2 c 0 -2 -2 -2 -2 -2 l -1 0 l -2 0 l -3 0 l -8 0 l 0 -1 c 0 -2 -2 -2 -2 -2 l -18 0 l -1 0 l -1 0 z" style="visibility:visible;fill:replacecolour1;fill-opacity:1;stroke:none;display:inline;color:#000"/>
 <path d="m 12 12 24 0 0 1 -24 0 z" style="fill:#7a7a68;fill-opacity:1"/>
 <path d="m 12 9 24 0 0 1 -24 0 z" style="fill:#7a7a68;fill-opacity:1"/>
 <path d="m 12 15 24 0 0 1 -24 0 z" style="fill:#7a7a68;fill-opacity:1"/>
 <path d="m 12 18 24 0 0 1 -24 0 z" style="fill:#7a7a68;fill-opacity:1"/>
 <path d="m 43.523 34.34 c 0.07 3.496 -1.773 6.758 -4.824 8.527 -3.047 1.77 -6.824 1.77 -9.875 0 -3.051 -1.77 -4.895 -5.03 -4.82 -8.527 -0.074 -3.5 1.77 -6.762 4.82 -8.531 3.051 -1.77 6.828 -1.77 9.875 0 3.051 1.77 4.895 5.03 4.824 8.531 z" style="fill:#859900;fill-rule:evenodd"/>
 <path d="m 39.1 28.14 c -0.207 0.074 -0.383 0.215 -0.5 0.398 l -5.32 5.199 -3.32 -3.199 c -0.133 -0.441 -0.551 -0.738 -1.016 -0.715 -0.461 0.027 -0.844 0.367 -0.93 0.82 -0.082 0.457 0.16 0.91 0.586 1.094 l 4 4 c 0.383 0.359 0.977 0.359 1.359 0 l 6 -6 c 0.234 -0.309 0.266 -0.73 0.082 -1.074 -0.184 -0.344 -0.555 -0.547 -0.941 -0.523 z" style="fill:#fff"/>
</svg>
